lib/healthicons/icons/outline/typography/M.svg

<svg fill="none" height="48" viewBox="0 0 48 48" width="48" xmlns="http://www.w3.org/2000/svg"><path clip-rule="evenodd" d="m11 36v-24c0-1.2631.7911-2.39084 1.9787-2.82082s2.5174-.07005 3.326.90022l7.6953 9.2344 7.6953-9.2344c.8086-.97027 2.1384-1.3302 3.326-.90022s1.9787 1.55772 1.9787 2.82082v24c0 1.6569-1.3431 3-3 3s-3-1.3431-3-3v-15.7139l-4.6953 5.6344c-.57.684-1.4144 1.0795-2.3047 1.0795s-1.7347-.3955-2.3047-1.0795l-4.6953-5.6344v15.7139c0 1.6569-1.3431 3-3 3s-3-1.3431-3-3zm2-24v24c0 .5523.4477 1 1 1s1-.4477 1-1v-18.4759c0-.421.2637-.797.6596-.9403.3958-.1433.8391-.0233 1.1086.3001l6.4636 7.7563c.19.228.4714.3598.7682.3598s.5782-.1318.7682-.3598l6.4636-7.7563c.2695-.3234.7127-.4434 1.1086-.3001.3959.1434.6596.5193.6596.9403v18.4759c0 .5523.4477 1 1 1s1-.4477 1-1v-24c0-.421-.2637-.797-.6596-.9403s-.8391-.0233-1.1086.3001l-8.4636 10.1563c-.19.228-.4714.3598-.7682.3598s-.5782-.1318-.7682-.3598l-8.4636-10.1563c-.2695-.3234-.7128-.4434-1.1086-.3001-.3959.1433-.6596.5193-.6596.9403z" fill="#333" fill-rule="evenodd"/></svg>

<svg width="48" height="48" viewBox="0 0 48 48" fill="none" xmlns="http://www.w3.org/2000/svg">
<path fill-rule="evenodd" clip-rule="evenodd" d="M11 36L11 12C11 10.7369 11.7911 9.60916 12.9787 9.17918C14.1663 8.7492 15.4961 9.10913 16.3047 10.0794L24 19.3138L31.6953 10.0794C32.5039 9.10913 33.8337 8.7492 35.0213 9.17918C36.2089 9.60916 37 10.7369 37 12L37 36C37 37.6569 35.6569 39 34 39C32.3431 39 31 37.6569 31 36L31 20.2861L26.3047 25.9205C25.7347 26.6045 24.8903 27 24 27C23.1097 27 22.2653 26.6045 21.6953 25.9205L17 20.2861L17 36C17 37.6569 15.6569 39 14 39C12.3431 39 11 37.6569 11 36ZM13 12L13 36C13 36.5523 13.4477 37 14 37C14.5523 37 15 36.5523 15 36L15 17.5241C15 17.1031 15.2637 16.7271 15.6596 16.5838C16.0554 16.4405 16.4987 16.5605 16.7682 16.8839L23.2318 24.6402C23.4218 24.8682 23.7032 25 24 25C24.2968 25 24.5782 24.8682 24.7682 24.6402L31.2318 16.8839C31.5013 16.5605 31.9445 16.4405 32.3404 16.5838C32.7363 16.7272 33 17.1031 33 17.5241L33 36C33 36.5523 33.4477 37 34 37C34.5523 37 35 36.5523 35 36L35 12C35 11.579 34.7363 11.203 34.3404 11.0597C33.9445 10.9164 33.5013 11.0364 33.2318 11.3598L24.7682 21.5161C24.5782 21.7441 24.2968 21.8759 24 21.8759C23.7032 21.8759 23.4218 21.7441 23.2318 21.5161L14.7682 11.3598C14.4987 11.0364 14.0554 10.9164 13.6596 11.0597C13.2637 11.203 13 11.579 13 12Z" fill="#333333"/>
</svg>
